symbols/web/bus_alert/materialsymbolsoutlined/bus_alert_wght300grad200fill1_20px.svg

<svg xmlns="http://www.w3.org/2000/svg" height="20" width="20"><path d="M15.167 9.146q-1.834 0-3.105-1.271-1.27-1.271-1.27-3.104 0-1.854 1.27-3.115 1.271-1.26 3.105-1.26 1.854 0 3.114 1.26 1.261 1.261 1.261 3.115 0 1.833-1.261 3.104-1.26 1.271-3.114 1.271Zm-.417-3.417h.812V2.083h-.812Zm.396 1.646q.187 0 .323-.135.135-.136.135-.302 0-.188-.135-.323-.136-.136-.323-.136-.188 0-.313.136-.125.135-.125.323 0 .187.136.312.135.125.302.125Zm-9.917 6.896q.5 0 .854-.354.355-.355.355-.855t-.355-.854q-.354-.354-.854-.354t-.854.354q-.354.354-.354.854t.354.855q.354.354.854.354Zm5.813 0q.5 0 .854-.354.354-.355.354-.875 0-.48-.354-.834t-.854-.354q-.5 0-.854.354-.355.354-.355.834 0 .52.355.875.354.354.854.354Zm-7.771 4.021q-.292 0-.521-.23-.229-.229-.229-.5v-1.687q-.375-.354-.636-.917-.26-.562-.26-1.166V5.854q0-1.75 1.469-2.5 1.468-.75 4.844-.75.333 0 .677-.01.343-.011.697.01-.25.375-.302.834-.052.458-.093.916 0 .584.052 1.177.052.594.239 1.136H3.167v2.729h8.062q.709.729 1.594 1.187.885.459 1.885.459v2.75q0 .604-.26 1.166-.26.563-.636.917v1.687q0 .271-.229.5-.229.23-.521.23h-.75q-.291 0-.52-.23-.23-.229-.23-.52v-.896H4.771v.896q0 .291-.229.52-.23.23-.521.23Z"/></svg>

<svg xmlns="http://www.w3.org/2000/svg" height="20" width="20"><path d="M15.167 9.146Q13.333 9.146 12.062 7.875Q10.792 6.604 10.792 4.771Q10.792 2.917 12.062 1.656Q13.333 0.396 15.167 0.396Q17.021 0.396 18.281 1.656Q19.542 2.917 19.542 4.771Q19.542 6.604 18.281 7.875Q17.021 9.146 15.167 9.146ZM14.75 5.729H15.562V2.083H14.75ZM15.146 7.375Q15.333 7.375 15.469 7.24Q15.604 7.104 15.604 6.938Q15.604 6.75 15.469 6.615Q15.333 6.479 15.146 6.479Q14.958 6.479 14.833 6.615Q14.708 6.75 14.708 6.938Q14.708 7.125 14.844 7.25Q14.979 7.375 15.146 7.375ZM5.229 14.271Q5.729 14.271 6.083 13.917Q6.438 13.562 6.438 13.062Q6.438 12.562 6.083 12.208Q5.729 11.854 5.229 11.854Q4.729 11.854 4.375 12.208Q4.021 12.562 4.021 13.062Q4.021 13.562 4.375 13.917Q4.729 14.271 5.229 14.271ZM11.042 14.271Q11.542 14.271 11.896 13.917Q12.25 13.562 12.25 13.042Q12.25 12.562 11.896 12.208Q11.542 11.854 11.042 11.854Q10.542 11.854 10.188 12.208Q9.833 12.562 9.833 13.042Q9.833 13.562 10.188 13.917Q10.542 14.271 11.042 14.271ZM3.271 18.292Q2.979 18.292 2.75 18.062Q2.521 17.833 2.521 17.562V15.875Q2.146 15.521 1.885 14.958Q1.625 14.396 1.625 13.792V5.854Q1.625 4.104 3.094 3.354Q4.562 2.604 7.938 2.604Q8.271 2.604 8.615 2.594Q8.958 2.583 9.312 2.604Q9.062 2.979 9.01 3.438Q8.958 3.896 8.917 4.354Q8.917 4.938 8.969 5.531Q9.021 6.125 9.208 6.667H3.167V9.396H11.229Q11.938 10.125 12.823 10.583Q13.708 11.042 14.708 11.042Q14.708 11.042 14.708 11.042Q14.708 11.042 14.708 11.042V13.792Q14.708 14.396 14.448 14.958Q14.188 15.521 13.812 15.875V17.562Q13.812 17.833 13.583 18.062Q13.354 18.292 13.062 18.292H12.312Q12.021 18.292 11.792 18.062Q11.562 17.833 11.562 17.542V16.646H4.771V17.542Q4.771 17.833 4.542 18.062Q4.312 18.292 4.021 18.292Z"/></svg>
